X: 27
T:Polka du Gers 1
O:France
A:Gers
M:2/4
L:1/4
K:C
cc cc|d/2c/2B/2A/2 G2|dd dd|e/2d/2c/2d/2 ec|
cc cc|d/2c/2B/2A/2 G2|EE GF|FF AG|GG BG/2G/2|
AF E2|EE GF|FF AG|GG AG|AB c2:||
